projects/oblique/icons/Lock.svg

<?xml version="1.0" encoding="UTF-8"?><svg id="a" xmlns="http://www.w3.org/2000/svg" viewBox="0 0 24 24"><path d="M18.96066,8.83577v-.62549c0-3.83789-3.12305-6.96045-6.96094-6.96045s-6.95996,3.12256-6.95996,6.96045v.62549h-1.79004v13.91406h17.5v-13.91406h-1.78906ZM6.53976,8.21029c0-3.01074,2.44922-5.46045,5.45996-5.46045s5.46094,2.44971,5.46094,5.46045v.62549H6.53976v-.62549ZM19.24973,21.24984H4.74973v-10.91406h14.5v10.91406ZM11.99973,18.9637c1.74902,0,3.17185-1.42236,3.17185-3.1709s-1.42283-3.17139-3.17185-3.17139c-1.74805,0-3.1709,1.42285-3.1709,3.17139s1.42285,3.1709,3.1709,3.1709ZM11.99973,14.12142c.92185,0,1.67185.75,1.67185,1.67139s-.75,1.6709-1.67185,1.6709c-.9209,0-1.6709-.74951-1.6709-1.6709s.75-1.67139,1.6709-1.67139Z"/></svg>

<svg xmlns="http://www.w3.org/2000/svg" viewBox="0 0 24 24"><title>Lock</title><path d="M18.96066,8.83577V8.21029a6.96045,6.96045,0,1,0-13.9209,0v.62548h-1.79V22.74984h17.5V8.83577ZM6.53976,8.21029a5.46045,5.46045,0,1,1,10.9209,0v.62548H6.53976Zm12.71,13.03955h-14.5V10.33577h14.5Z" fill="#171717"/><path d="M11.99973,18.9637a3.17114,3.17114,0,1,0-3.1709-3.17089A3.17486,3.17486,0,0,0,11.99973,18.9637Zm0-4.84228a1.67114,1.67114,0,1,1-1.6709,1.67139A1.67366,1.67366,0,0,1,11.99973,14.12142Z" fill="#171717"/></svg>
